!!!COM: Music21
!!!OTL: Foliada de Berducido
!!!OMV: pezas_foliadas_foliada-de-berducido_foliada-de-berducido-partitura-2.musicxml
**kern
*I"Bagpipes
*I'Bag
*clefG^2
*k[b-e-a-]
*E-:
*M3/4
=1
!LO:TX:a:B:t=Presto
*MM180
!LO:TX:a:t=[quarter]=180
2r
4gg
=||
4ccc
8bb-L
8aa-J
4gg
=
4ff
4gg
4bb-
=
4aa-
12ggL
12aa-
12ggJ
[4ff
=
2ff]
4gg
=
4gg
4ff
4ee-
=
4dd
4ee-
4ff
=
4gg
12aa-L
12bb-
12aa-J
[4gg
=
2gg]
4gg
=
4ccc
8bb-L
8aa-J
4gg
=
4ff
4gg
4bb-
!!linebreak:original
=
4aa-
12ggL
12aa-
12ggJ
[4ff
=
4ff]
4ee-
4ff
=
4gg
4ccc
[4aa-
=
4aa-]
4ff
[4dd
=
4dd]
4aa-
4gg
=
[2.cc
=
2cc]
4gg
=||
2cc
4dd
=
4ee-
4ff
4gg
=
2gg
4ee-
=
2gg
4ff
=
2dd
4ee-
=
4ff
4gg
4ff
!!linebreak:original
=
8ee-L
8ddJ
[2cc
=
2cc]
4gg
=||
2cc
4dd
=
4ee-
4ff
4gg
=
2gg
4ee-
=
2gg
4ff
=
2dd
4ee-
=
4ff
4gg
4ff
=
8ee-L
8ddJ
[2cc
=
2cc]
4gg
=||
2cc
4dd
=
4ee-
4ff
4gg
=
2gg
4ee-
!!linebreak:original
=
2gg
4ff
=
2dd
4ee-
=
4ff
4gg
4ff
=
8ee-L
8ddJ
4cc
4cc
=
4cc
4dd
4ee-
!!linebreak:original
=||
4ff
4ff
4ff
=
4ff
4ee-
4ff
=
2gg
4cc
=
4cc
4dd
4ee-
=
4ff
4ff
4ff
=
4ff
4ee-
4dd
=
2cc
4cc
=
4cc
4dd
4ee-
=
2ff
4ff
=
4ff
4ee-
4ff
=||
!LO:TX:a:B:t=ritardando
*MM80
!LO:TX:a:t=[quarter]=80
2gg;
4ccc
=
4ccc
4bb-
4aa-
!!linebreak:original
=||
!LO:TX:a:B:t=Presto
*MM180
!LO:TX:a:t=[quarter]=180
4gg
4aa-
4gg
=
4ff
4ee-
4dd
=||
[2.cc
=
2cc]
4gg
=||
[2.cc
=
8cc]
8r
2r
==
*-
